src/assets/duotone/Battery2full.svg

<svg width="24" height="24" viewBox="0 0 24 24"  xmlns="http://www.w3.org/2000/svg">
<path opacity="0.4" d="M12.93 4.79004H7.35C3.25 4.79004 2 6.04004 2 10.14V13.86C2 17.96 3.25 19.21 7.35 19.21H12.93C17.03 19.21 18.28 17.96 18.28 13.86V10.14C18.28 6.04004 17.03 4.79004 12.93 4.79004Z" />
<path d="M20.4202 9.00047C20.2802 8.99047 20.1002 8.98047 19.9002 8.98047C19.5102 8.98047 19.2002 9.29047 19.2002 9.68047V14.3305C19.2002 14.7205 19.5102 15.0305 19.9002 15.0305C20.1002 15.0305 20.2702 15.0205 20.4402 15.0105C22.0002 14.8305 22.0002 13.7305 22.0002 12.9305V11.0705C22.0002 10.2705 22.0002 9.17047 20.4202 9.00047Z" />
<path d="M6.38007 14.7501C6.32007 14.7501 6.26007 14.7401 6.20007 14.7301C5.80007 14.6301 5.55007 14.2201 5.65007 13.8201C5.95007 12.6301 5.95007 11.3701 5.65007 10.1801C5.55007 9.7801 5.79007 9.3701 6.20007 9.2701C6.60007 9.1701 7.00007 9.4201 7.10007 9.8201C7.46007 11.2501 7.46007 12.7601 7.10007 14.1801C7.02007 14.5201 6.71007 14.7501 6.38007 14.7501Z" />
<path d="M9.88007 14.7497C9.82007 14.7497 9.76007 14.7397 9.70007 14.7297C9.30007 14.6297 9.05007 14.2197 9.15007 13.8197C9.45007 12.6297 9.45007 11.3697 9.15007 10.1797C9.05007 9.7797 9.29007 9.3697 9.70007 9.2697C10.1001 9.1697 10.5101 9.4097 10.6101 9.8197C10.9701 11.2497 10.9701 12.7597 10.6101 14.1797C10.5201 14.5197 10.2101 14.7497 9.88007 14.7497Z" />
</svg>

<?xml version="1.0" encoding="UTF-8"?>
<svg width="24" height="24" viewBox="0 0 24 24" xmlns="http://www.w3.org/2000/svg">
 <path d="m12.93 4.79h-5.58c-4.1 0-5.35 1.25-5.35 5.35v3.72c0 4.1 1.25 5.35 5.35 5.35h5.58c4.1 0 5.35-1.25 5.35-5.35v-3.72c0-4.1-1.25-5.35-5.35-5.35z" opacity=".4"/>
 <path d="m20.42 9.0005c-0.14-0.01-0.32-0.02-0.52-0.02-0.39 0-0.7 0.31-0.7 0.7v4.65c0 0.39 0.31 0.7 0.7 0.7 0.2 0 0.37-0.01 0.54-0.02 1.56-0.18 1.56-1.28 1.56-2.08v-1.86c0-0.8 0-1.9-1.58-2.07z"/>
 <path d="m6.3801 14.75c-0.06 0-0.12-0.01-0.18-0.02-0.4-0.1-0.65-0.51-0.55-0.91 0.3-1.19 0.3-2.45 0-3.64-0.1-0.4 0.14-0.81 0.55-0.91 0.4-0.1 0.8 0.15 0.9 0.55 0.36 1.43 0.36 2.94 0 4.36-0.08 0.34-0.39 0.57-0.72 0.57z"/>
 <path d="m9.8801 14.75c-0.06 0-0.12-0.01-0.18-0.02-0.4-0.1-0.65-0.51-0.55-0.91 0.3-1.19 0.3-2.45 0-3.64-0.1-0.4 0.14-0.81 0.55-0.91 0.40003-0.1 0.81003 0.14 0.91003 0.55 0.36 1.43 0.36 2.94 0 4.36-0.09 0.34-0.4 0.57-0.73003 0.57z"/>
</svg>
